X:207
T:Scotty O'Neil
M:4/4
L:1/8
K:D
|: F2D2 A2F2 | dedc BABc | d2A2G2F2 | F2E2E2 AG |
     | F2D2 A2F2 | dedc BABc | d2A2 ABAG | F2D2D2 AG :|
P:B
|: F2A2 f3e | d2c2 B3c | d2A2 G2F2 | F2E2E2 AG |
     | F2A2 f3e | dedc BABc | d2A2 ABAG | F2 D2D2 AG :|
